X:1
T:Title
%%score 1 { 2 | 3 }
L:1/8
M:9/4
K:Eb
V:1 treble nm="Grand Piano, Piano"
V:2 bass nm="Grand Piano, Piano"
V:3 bass 
V:1
 z6 z6[Q:1/4=100] [EG]2 [EF]2 [EG]2 | [EA]6 [EG]6 [B,E]2 [B,D]2 [B,E]2 |[M:6/4] [DF]12 | %3
w: 1.\-4.~~Have~ thine~ own~|way,~ Lord!~ Have~ thine~ own~|way!~|
[M:3/4] [DF]2 [D=E]2 [DF]2 |[M:9/4] [DG]6 [DF]6 [B,F]2 [B,E]2 [B,D]2 |[M:6/4] [B,E]12 | %6
w: Thou~ art~ the~|pot ter,~ I~ am~ the~|clay.~|
[M:3/4] [EG]2 [EF]2 [EG]2 |[M:9/4] [EA]6 [EG]6 [_DB]2 [C=A]2 [DB]2 |[M:6/4] [Ec]12 | %9
w: Mold~ me~ and~|make~ me~ af ter~ thy~|will,~|
[M:3/4] [Ec]2 [Ed]2 [Ec]2 |[M:9/4] [EB]6 [EG]6 [B,F]2 [B,E]2 [DF]2 |[M:6/4] [B,E]12 |] %12
w: while~ I~ am~|wait ing,~ yiel ded~ and~|still.~|
V:2
 z6 z6 B,2 A,2 B,2 | C6 B,6 G,2 F,2 G,2 |[M:6/4] A,12 |[M:3/4] A,2 G,2 A,2 | %4
[M:9/4] B,6 A,6 A,2 G,2 F,2 |[M:6/4] G,12 |[M:3/4] B,2 A,2 B,2 |[M:9/4] C6 B,6 G,2 G,2 G,2 | %8
[M:6/4] A,12 |[M:3/4] A,2 B,2 A,2 |[M:9/4] G,6 B,6 A,2 G,2 A,2 |[M:6/4] G,12 |] %12
V:3
 z6 z6 E,2 E,2 E,2 | E,6 E,6 E,2 E,2 E,2 |[M:6/4] B,,12 |[M:3/4] B,,2 B,,2 B,,2 | %4
[M:9/4] B,,6 B,,6 B,,2 B,,2 B,,2 |[M:6/4] E,12 |[M:3/4] E,2 E,2 E,2 |[M:9/4] E,6 E,6 E,2 E,2 E,2 | %8
[M:6/4] A,,12 |[M:3/4] A,,2 A,,2 A,,2 |[M:9/4] B,,6 B,,6 B,,2 B,,2 B,,2 |[M:6/4] E,12 |] %12

